RLF_2_RG4.cube
TITLE "Generated by Foundry::LUT"
LUT_3D_SIZE 5
DOMAIN_MIN 0.000000 0.000000 0.000000
DOMAIN_MAX 0.903226 0.903226 0.903226
0.000000 0.000000 0.000000
0.089657 0.000000 0.000000
0.437342 0.000000 0.000000
0.844591 0.000000 0.000000
0.996447 0.000000 0.000000
0.000000 0.089657 0.000000
0.089657 0.089657 0.000000
0.437342 0.089657 0.000000
0.844591 0.089657 0.000000
0.996447 0.089657 0.000000
0.000000 0.437342 0.000000
0.089657 0.437342 0.000000
0.437342 0.437342 0.000000
0.844591 0.437342 0.000000
0.996447 0.437342 0.000000
0.000000 0.844591 0.000000
0.089657 0.844591 0.000000
0.437342 0.844591 0.000000
0.844591 0.844591 0.000000
0.996447 0.844591 0.000000
0.000000 0.996447 0.000000
0.089657 0.996447 0.000000
0.437342 0.996447 0.000000
0.844591 0.996447 0.000000
0.996447 0.996447 0.000000
0.000000 0.000000 0.089657
0.089657 0.000000 0.089657
0.437342 0.000000 0.089657
0.844591 0.000000 0.089657
0.996447 0.000000 0.089657
0.000000 0.089657 0.089657
0.089657 0.089657 0.089657
0.437342 0.089657 0.089657
0.844591 0.089657 0.089657
0.996447 0.089657 0.089657
0.000000 0.437342 0.089657
0.089657 0.437342 0.089657
0.437342 0.437342 0.089657
0.844591 0.437342 0.089657
0.996447 0.437342 0.089657
0.000000 0.844591 0.089657
0.089657 0.844591 0.089657
0.437342 0.844591 0.089657
0.844591 0.844591 0.089657
0.996447 0.844591 0.089657
0.000000 0.996447 0.089657
0.089657 0.996447 0.089657
0.437342 0.996447 0.089657
0.844591 0.996447 0.089657
0.996447 0.996447 0.089657
0.000000 0.000000 0.437342
0.089657 0.000000 0.437342
0.437342 0.000000 0.437342
0.844591 0.000000 0.437342
0.996447 0.000000 0.437342
0.000000 0.089657 0.437342
0.089657 0.089657 0.437342
0.437342 0.089657 0.437342
0.844591 0.089657 0.437342
0.996447 0.089657 0.437342
0.000000 0.437342 0.437342
0.089657 0.437342 0.437342
0.437342 0.437342 0.437342
0.844591 0.437342 0.437342
0.996447 0.437342 0.437342
0.000000 0.844591 0.437342
0.089657 0.844591 0.437342
0.437342 0.844591 0.437342
0.844591 0.844591 0.437342
0.996447 0.844591 0.437342
0.000000 0.996447 0.437342
0.089657 0.996447 0.437342
0.437342 0.996447 0.437342
0.844591 0.996447 0.437342
0.996447 0.996447 0.437342
0.000000 0.000000 0.844591
0.089657 0.000000 0.844591
0.437342 0.000000 0.844591
0.844591 0.000000 0.844591
0.996447 0.000000 0.844591
0.000000 0.089657 0.844591
0.089657 0.089657 0.844591
0.437342 0.089657 0.844591
0.844591 0.089657 0.844591
0.996447 0.089657 0.844591
0.000000 0.437342 0.844591
0.089657 0.437342 0.844591
0.437342 0.437342 0.844591
0.844591 0.437342 0.844591
0.996447 0.437342 0.844591
0.000000 0.844591 0.844591
0.089657 0.844591 0.844591
0.437342 0.844591 0.844591
0.844591 0.844591 0.844591
0.996447 0.844591 0.844591
0.000000 0.996447 0.844591
0.089657 0.996447 0.844591
0.437342 0.996447 0.844591
0.844591 0.996447 0.844591
0.996447 0.996447 0.844591
0.000000 0.000000 0.996447
0.089657 0.000000 0.996447
0.437342 0.000000 0.996447
0.844591 0.000000 0.996447
0.996447 0.000000 0.996447
0.000000 0.089657 0.996447
0.089657 0.089657 0.996447
0.437342 0.089657 0.996447
0.844591 0.089657 0.996447
0.996447 0.089657 0.996447
0.000000 0.437342 0.996447
0.089657 0.437342 0.996447
0.437342 0.437342 0.996447
0.844591 0.437342 0.996447
0.996447 0.437342 0.996447
0.000000 0.844591 0.996447
0.089657 0.844591 0.996447
0.437342 0.844591 0.996447
0.844591 0.844591 0.996447
0.996447 0.844591 0.996447
0.000000 0.996447 0.996447
0.089657 0.996447 0.996447
0.437342 0.996447 0.996447
0.844591 0.996447 0.996447
0.996447 0.996447 0.996447
