RLF_2_RG4.cube
TITLE "Generated by Foundry::LUT"
LUT_3D_SIZE 32
0.000000 0.000000 0.000000
0.001638 0.000000 0.000000
0.004786 0.000000 0.000000
0.010952 0.000000 0.000000
0.021661 0.000000 0.000000
0.038172 0.000000 0.000000
0.060573 0.000000 0.000000
0.089657 0.000000 0.000000
0.125639 0.000000 0.000000
0.167164 0.000000 0.000000
0.213629 0.000000 0.000000
0.264515 0.000000 0.000000
0.319277 0.000000 0.000000
0.376854 0.000000 0.000000
0.437342 0.000000 0.000000
0.499676 0.000000 0.000000
0.562540 0.000000 0.000000
0.625028 0.000000 0.000000
0.685923 0.000000 0.000000
0.743575 0.000000 0.000000
0.796542 0.000000 0.000000
0.844591 0.000000 0.000000
0.885999 0.000000 0.000000
0.919793 0.000000 0.000000
0.946494 0.000000 0.000000
0.966709 0.000000 0.000000
0.981148 0.000000 0.000000
0.990742 0.000000 0.000000
0.996447 0.000000 0.000000
0.999246 0.000000 0.000000
1.000108 0.000000 0.000000
1.000000 0.000000 0.000000
0.000000 0.001638 0.000000
0.001638 0.001638 0.000000
0.004786 0.001638 0.000000
0.010952 0.001638 0.000000
0.021661 0.001638 0.000000
0.038172 0.001638 0.000000
0.060573 0.001638 0.000000
0.089657 0.001638 0.000000
0.125639 0.001638 0.000000
0.167164 0.001638 0.000000
0.213629 0.001638 0.000000
0.264515 0.001638 0.000000
0.319277 0.001638 0.000000
0.376854 0.001638 0.000000
0.437342 0.001638 0.000000
0.499676 0.001638 0.000000
0.562540 0.001638 0.000000
0.625028 0.001638 0.000000
0.685923 0.001638 0.000000
0.743575 0.001638 0.000000
0.796542 0.001638 0.000000
0.844591 0.001638 0.000000
0.885999 0.001638 0.000000
0.919793 0.001638 0.000000
0.946494 0.001638 0.000000
0.966709 0.001638 0.000000
0.981148 0.001638 0.000000
0.990742 0.001638 0.000000
0.996447 0.001638 0.000000
0.999246 0.001638 0.000000
1.000108 0.001638 0.000000
1.000000 0.001638 0.000000
0.000000 0.004786 0.000000
0.001638 0.004786 0.000000
0.004786 0.004786 0.000000
0.010952 0.004786 0.000000
0.021661 0.004786 0.000000
0.038172 0.004786 0.000000
0.060573 0.004786 0.000000
0.089657 0.004786 0.000000
0.125639 0.004786 0.000000
0.167164 0.004786 0.000000
0.213629 0.004786 0.000000
0.264515 0.004786 0.000000
0.319277 0.004786 0.000000
0.376854 0.004786 0.000000
0.437342 0.004786 0.000000
0.499676 0.004786 0.000000
0.562540 0.004786 0.000000
0.625028 0.004786 0.000000
0.685923 0.004786 0.000000
0.743575 0.004786 0.000000
0.796542 0.004786 0.000000
0.844591 0.004786 0.000000
0.885999 0.004786 0.000000
0.919793 0.004786 0.000000
0.946494 0.004786 0.000000
0.966709 0.004786 0.000000
0.981148 0.004786 0.000000
0.990742 0.004786 0.000000
0.996447 0.004786 0.000000
0.999246 0.004786 0.000000
1.000108 0.004786 0.000000
1.000000 0.004786 0.000000
0.000000 0.010952 0.000000
0.001638 0.010952 0.000000
0.004786 0.010952 0.000000
0.010952 0.010952 0.000000
0.021661 0.010952 0.000000
0.038172 0.010952 0.000000
0.060573 0.010952 0.000000
0.089657 0.010952 0.000000
0.125639 0.010952 0.000000
0.167164 0.010952 0.000000
0.213629 0.010952 0.000000
0.264515 0.010952 0.000000
0.319277 0.010952 0.000000
0.376854 0.010952 0.000000
0.437342 0.010952 0.000000
0.499676 0.010952 0.000000
0.562540 0.010952 0.000000
0.625028 0.010952 0.000000
0.685923 0.010952 0.000000
0.743575 0.010952 0.000000
0.796542 0.010952 0.000000
0.844591 0.010952 0.000000
0.885999 0.010952 0.000000
0.919793 0.010952 0.000000
0.946494 0.010952 0.000000
0.966709 0.010952 0.000000
0.981148 0.010952 0.000000
0.990742 0.010952 0.000000
0.996447 0.010952 0.000000
0.999246 0.010952 0.000000
1.000108 0.010952 0.000000
1.000000 0.010952 0.000000
0.000000 0.021661 0.000000
0.001638 0.021661 0.000000
0.004786 0.021661 0.000000
0.010952 0.021661 0.000000
0.021661 0.021661 0.000000
0.038172 0.021661 0.000000
0.060573 0.021661 0.000000
0.089657 0.021661 0.000000
0.125639 0.021661 0.000000
0.167164 0.021661 0.000000
0.213629 0.021661 0.000000
0.264515 0.021661 0.000000
0.319277 0.021661 0.000000
0.376854 0.021661 0.000000
0.437342 0.021661 0.000000
0.499676 0.021661 0.000000
0.562540 0.021661 0.000000
0.625028 0.021661 0.000000
0.685923 0.021661 0.000000
0.743575 0.021661 0.000000
0.796542 0.021661 0.000000
0.844591 0.021661 0.000000
0.885999 0.021661 0.000000
0.919793 0.021661 0.000000
0.946494 0.021661 0.000000
0.966709 0.021661 0.000000
0.981148 0.021661 0.000000
0.990742 0.021661 0.000000
0.996447 0.021661 0.000000
0.999246 0.021661 0.000000
1.000108 0.021661 0.000000
1.000000 0.021661 0.000000
0.000000 0.038172 0.000000
0.001638 0.038172 0.000000
0.004786 0.038172 0.000000
0.010952 0.038172 0.000000
0.021661 0.038172 0.000000
0.038172 0.038172 0.000000
0.060573 0.038172 0.000000
0.089657 0.038172 0.000000
0.125639 0.038172 0.000000
0.167164 0.038172 0.000000
0.213629 0.038172 0.000000
0.264515 0.038172 0.000000
0.319277 0.038172 0.000000
0.376854 0.038172 0.000000
0.437342 0.038172 0.000000
0.499676 0.038172 0.000000
0.562540 0.038172 0.000000
0.625028 0.038172 0.000000
0.685923 0.038172 0.000000
0.743575 0.038172 0.000000
0.796542 0.038172 0.000000
0.844591 0.038172 0.000000
0.885999 0.038172 0.000000
0.919793 0.038172 0.000000
0.946494 0.038172 0.000000
0.966709 0.038172 0.000000
0.981148 0.038172 0.000000
0.990742 0.038172 0.000000
0.996447 0.038172 0.000000
0.999246 0.038172 0.000000
1.000108 0.038172 0.000000
1.000000 0.038172 0.000000
0.000000 0.060573 0.000000
0.001638 0.060573 0.000000
0.004786 0.060573 0.000000
0.010952 0.060573 0.000000
0.021661 0.060573 0.000000
0.038172 0.060573 0.000000
0.060573 0.060573 0.000000
0.089657 0.060573 0.000000
0.125639 0.060573 0.000000
0.167164 0.060573 0.000000
0.213629 0.060573 0.000000
0.264515 0.060573 0.000000
0.319277 0.060573 0.000000
0.376854 0.060573 0.000000
0.437342 0.060573 0.000000
0.499676 0.060573 0.000000
0.562540 0.060573 0.000000
0.625028 0.060573 0.000000
0.685923 0.060573 0.000000
0.743575 0.060573 0.000000
0.796542 0.060573 0.000000
0.844591 0.060573 0.000000
0.885999 0.060573 0.000000
0.919793 0.060573 0.000000
0.946494 0.060573 0.000000
0.966709 0.060573 0.000000
0.981148 0.060573 0.000000
0.990742 0.060573 0.000000
0.996447 0.060573 0.000000
0.999246 0.060573 0.000000
1.000108 0.060573 0.000000
1.000000 0.060573 0.000000
0.000000 0.089657 0.000000
0.001638 0.089657 0.000000
0.004786 0.089657 0.000000
0.010952 0.089657 0.000000
0.021661 0.089657 0.000000
0.038172 0.089657 0.000000
0.060573 0.089657 0.000000
0.089657 0.089657 0.000000
0.125639 0.089657 0.000000
0.167164 0.089657 0.000000
0.213629 0.089657 0.000000
0.264515 0.089657 0.000000
0.319277 0.089657 0.000000
0.376854 0.089657 0.000000
0.437342 0.089657 0.000000
0.499676 0.089657 0.000000
0.562540 0.089657 0.000000
0.625028 0.089657 0.000000
0.685923 0.089657 0.000000
0.743575 0.089657 0.000000
0.796542 0.089657 0.000000
0.844591 0.089657 0.000000
0.885999 0.089657 0.000000
0.919793 0.089657 0.000000
0.946494 0.089657 0.000000
0.966709 0.089657 0.000000
0.981148 0.089657 0.000000
0.990742 0.089657 0.000000
0.996447 0.089657 0.000000
0.999246 0.089657 0.000000
1.000108 0.089657 0.000000
1.000000 0.089657 0.000000
0.000000 0.125639 0.000000
0.001638 0.125639 0.000000
0.004786 0.125639 0.000000
0.010952 0.125639 0.000000
0.021661 0.125639 0.000000
0.038172 0.125639 0.000000
0.060573 0.125639 0.000000
0.089657 0.125639 0.000000
0.125639 0.125639 0.000000
0.167164 0.125639 0.000000
0.213629 0.125639 0.000000
0.264515 0.125639 0.000000
0.319277 0.125639 0.000000
0.376854 0.125639 0.000000
0.437342 0.125639 0.000000
0.499676 0.125639 0.000000
0.562540 0.125639 0.000000
0.625028 0.125639 0.000000
0.685923 0.125639 0.000000
0.743575 0.125639 0.000000
0.796542 0.125639 0.000000
0.844591 0.125639 0.000000
0.885999 0.125639 0.000000
0.919793 0.125639 0.000000
0.946494 0.125639 0.000000
0.966709 0.125639 0.000000
0.981148 0.125639 0.000000
0.990742 0.125639 0.000000
0.996447 0.125639 0.000000
0.999246 0.125639 0.000000
1.000108 0.125639 0.000000
1.000000 0.125639 0.000000
0.000000 0.167164 0.000000
0.001638 0.167164 0.000000
0.004786 0.167164 0.000000
0.010952 0.167164 0.000000
0.021661 0.167164 0.000000
0.038172 0.167164 0.000000
0.060573 0.167164 0.000000
0.089657 0.167164 0.000000
0.125639 0.167164 0.000000
0.167164 0.167164 0.000000
0.213629 0.167164 0.000000
0.264515 0.167164 0.000000
0.319277 0.167164 0.000000
0.376854 0.167164 0.000000
0.437342 0.167164 0.000000
0.499676 0.167164 0.000000
0.562540 0.167164 0.000000
0.625028 0.167164 0.000000
0.685923 0.167164 0.000000
0.743575 0.167164 0.000000
0.796542 0.167164 0.000000
0.844591 0.167164 0.000000
0.885999 0.167164 0.000000
0.919793 0.167164 0.000000
0.946494 0.167164 0.000000
0.966709 0.167164 0.000000
0.981148 0.167164 0.000000
0.990742 0.167164 0.000000
0.996447 0.167164 0.000000
0.999246 0.167164 0.000000
1.000108 0.167164 0.000000
1.000000 0.167164 0.000000
0.000000 0.213629 0.000000
0.001638 0.213629 0.000000
0.004786 0.213629 0.000000
0.010952 0.213629 0.000000
0.021661 0.213629 0.000000
0.038172 0.213629 0.000000
0.060573 0.213629 0.000000
0.089657 0.213629 0.000000
0.125639 0.213629 0.000000
0.167164 0.213629 0.000000
0.213629 0.213629 0.000000
0.264515 0.213629 0.000000
0.319277 0.213629 0.000000
0.376854 0.213629 0.000000
0.437342 0.213629 0.000000
0.499676 0.213629 0.000000
0.562540 0.213629 0.000000
0.625028 0.213629 0.000000
0.685923 0.213629 0.000000
0.743575 0.213629 0.000000
0.796542 0.213629 0.000000
0.844591 0.213629 0.000000
0.885999 0.213629 0.000000
0.919793 0.213629 0.000000
0.946494 0.213629 0.000000
0.966709 0.213629 0.000000
0.981148 0.213629 0.000000
0.990742 0.213629 0.000000
0.996447 0.213629 0.000000
0.999246 0.213629 0.000000
1.000108 0.213629 0.000000
1.000000 0.213629 0.000000
0.000000 0.264515 0.000000
0.001638 0.264515 0.000000
0.004786 0.264515 0.000000
0.010952 0.264515 0.000000
0.021661 0.264515 0.000000
0.038172 0.264515 0.000000
0.060573 0.264515 0.000000
0.089657 0.264515 0.000000
0.125639 0.264515 0.000000
0.167164 0.264515 0.000000
0.213629 0.264515 0.000000
0.264515 0.264515 0.000000
0.319277 0.264515 0.000000
0.376854 0.264515 0.000000
0.437342 0.264515 0.000000
0.499676 0.264515 0.000000
0.562540 0.264515 0.000000
0.625028 0.264515 0.000000
0.685923 0.264515 0.000000
0.743575 0.264515 0.000000
0.796542 0.264515 0.000000
0.844591 0.264515 0.000000
0.885999 0.264515 0.000000
0.919793 0.264515 0.000000
0.946494 0.264515 0.000000
0.966709 0.264515 0.000000
0.981148 0.264515 0.000000
0.990742 0.264515 0.000000
0.996447 0.264515 0.000000
0.999246 0.264515 0.000000
1.000108 0.264515 0.000000
1.000000 0.264515 0.000000
0.000000 0.319277 0.000000
0.001638 0.319277 0.000000
0.004786 0.319277 0.000000
0.010952 0.319277 0.000000
0.021661 0.319277 0.000000
0.038172 0.319277 0.000000
0.060573 0.319277 0.000000
0.089657 0.319277 0.000000
0.125639 0.319277 0.000000
0.167164 0.319277 0.000000
0.213629 0.319277 0.000000
0.264515 0.319277 0.000000
0.319277 0.319277 0.000000
0.376854 0.319277 0.000000
0.437342 0.319277 0.000000
0.499676 0.319277 0.000000
0.562540 0.319277 0.000000
0.625028 0.319277 0.000000
0.685923 0.319277 0.000000
0.743575 0.319277 0.000000
0.796542 0.319277 0.000000
0.844591 0.319277 0.000000
0.885999 0.319277 0.000000
0.919793 0.319277 0.000000
0.946494 0.319277 0.000000
0.966709 0.319277 0.000000
0.981148 0.319277 0.000000
0.990742 0.319277 0.000000
0.996447 0.319277 0.000000
0.999246 0.319277 0.000000
1.000108 0.319277 0.000000
1.000000 0.319277 0.000000
0.000000 0.376854 0.000000
0.001638 0.376854 0.000000
0.004786 0.376854 0.000000
0.010952 0.376854 0.000000
0.021661 0.376854 0.000000
0.038172 0.376854 0.000000
0.060573 0.376854 0.000000
0.089657 0.376854 0.000000
0.125639 0.376854 0.000000
0.167164 0.376854 0.000000
0.213629 0.376854 0.000000
0.264515 0.376854 0.000000
0.319277 0.376854 0.000000
0.376854 0.376854 0.000000
0.437342 0.376854 0.000000
0.499676 0.376854 0.000000
0.562540 0.376854 0.000000
0.625028 0.376854 0.000000
0.685923 0.376854 0.000000
0.743575 0.376854 0.000000
0.796542 0.376854 0.000000
0.844591 0.376854 0.000000
0.885999 0.376854 0.000000
0.919793 0.376854 0.000000
0.946494 0.376854 0.000000
0.966709 0.376854 0.000000
0.981148 0.376854 0.000000
0.990742 0.376854 0.000000
0.996447 0.376854 0.000000
0.999246 0.376854 0.000000
1.000108 0.376854 0.000000
1.000000 0.376854 0.000000
0.000000 0.437342 0.000000
0.001638 0.437342 0.000000
0.004786 0.437342 0.000000
0.010952 0.437342 0.000000
0.021661 0.437342 0.000000
0.038172 0.437342 0.000000
0.060573 0.437342 0.000000
0.089657 0.437342 0.000000
0.125639 0.437342 0.000000
0.167164 0.437342 0.000000
0.213629 0.437342 0.000000
0.264515 0.437342 0.000000
0.319277 0.437342 0.000000
0.376854 0.437342 0.000000
0.437342 0.437342 0.000000
0.499676 0.437342 0.000000
0.562540 0.437342 0.000000
0.625028 0.437342 0.000000
0.685923 0.437342 0.000000
0.743575 0.437342 0.000000
0.796542 0.437342 0.000000
0.844591 0.437342 0.000000
0.885999 0.437342 0.000000
0.919793 0.437342 0.000000
0.946494 0.437342 0.000000
0.966709 0.437342 0.000000
0.981148 0.437342 0.000000
0.990742 0.437342 0.000000
0.996447 0.437342 0.000000
0.999246 0.437342 0.000000
1.000108 0.437342 0.000000
1.000000 0.437342 0.000000
0.000000 0.499676 0.000000
0.001638 0.499676 0.000000
0.004786 0.499676 0.000000
0.010952 0.499676 0.000000
0.021661 0.499676 0.000000
0.038172 0.499676 0.000000
0.060573 0.499676 0.000000
0.089657 0.499676 0.000000
0.125639 0.499676 0.000000
0.167164 0.499676 0.000000
0.213629 0.499676 0.000000
0.264515 0.499676 0.000000
0.319277 0.499676 0.000000
0.376854 0.499676 0.000000
0.437342 0.499676 0.000000
0.499676 0.499676 0.000000
0.562540 0.499676 0.000000
0.625028 0.499676 0.000000
0.685923 0.499676 0.000000
0.743575 0.499676 0.000000
0.796542 0.499676 0.000000
0.844591 0.499676 0.000000
0.885999 0.499676 0.000000
0.919793 0.499676 0.000000
0.946494 0.499676 0.000000
0.966709 0.499676 0.000000
0.981148 0.499676 0.000000
0.990742 0.499676 0.000000
0.996447 0.499676 0.000000
0.999246 0.499676 0.000000
1.000108 0.499676 0.000000
1.000000 0.499676 0.000000
0.000000 0.562540 0.000000
0.001638 0.562540 0.000000
0.004786 0.562540 0.000000
0.010952 0.562540 0.000000
0.021661 0.562540 0.000000
0.038172 0.562540 0.000000
0.060573 0.562540 0.000000
0.089657 0.562540 0.000000
0.125639 0.562540 0.000000
0.167164 0.562540 0.000000
0.213629 0.562540 0.000000
0.264515 0.562540 0.000000
0.319277 0.562540 0.000000
0.376854 0.562540 0.000000
0.437342 0.562540 0.000000
0.499676 0.562540 0.000000
0.562540 0.562540 0.000000
0.625028 0.562540 0.000000
0.685923 0.562540 0.000000
0.743575 0.562540 0.000000
0.796542 0.562540 0.000000
0.844591 0.562540 0.000000
0.885999 0.562540 0.000000
0.919793 0.562540 0.000000
0.946494 0.562540 0.000000
0.966709 0.562540 0.000000
0.981148 0.562540 0.000000
0.990742 0.562540 0.000000
0.996447 0.562540 0.000000
0.999246 0.562540 0.000000
1.000108 0.562540 0.000000
1.000000 0.562540 0.000000
0.000000 0.625028 0.000000
0.001638 0.625028 0.000000
0.004786 0.625028 0.000000
0.010952 0.625028 0.000000
0.021661 0.625028 0.000000
0.038172 0.625028 0.000000
0.060573 0.625028 0.000000
0.089657 0.625028 0.000000
0.125639 0.625028 0.000000
0.167164 0.625028 0.000000
0.213629 0.625028 0.000000
0.264515 0.625028 0.000000
0.319277 0.625028 0.000000
0.376854 0.625028 0.000000
0.437342 0.625028 0.000000
0.499676 0.625028 0.000000
0.562540 0.625028 0.000000
0.625028 0.625028 0.000000
0.685923 0.625028 0.000000
0.743575 0.625028 0.000000
0.796542 0.625028 0.000000
0.844591 0.625028 0.000000
0.885999 0.625028 0.000000
0.919793 0.625028 0.000000
0.946494 0.625028 0.000000
0.966709 0.625028 0.000000
0.981148 0.625028 0.000000
0.990742 0.625028 0.000000
0.996447 0.625028 0.000000
0.999246 0.625028 0.000000
1.000108 0.625028 0.000000
1.000000 0.625028 0.000000
0.000000 0.685923 0.000000
0.001638 0.685923 0.000000
0.004786 0.685923 0.000000
0.010952 0.685923 0.000000
0.021661 0.685923 0.000000
0.038172 0.685923 0.000000
0.060573 0.685923 0.000000
0.089657 0.685923 0.000000
0.125639 0.685923 0.000000
0.167164 0.685923 0.000000
0.213629 0.685923 0.000000
0.264515 0.685923 0.000000
0.319277 0.685923 0.000000
0.376854 0.685923 0.000000
0.437342 0.685923 0.000000
0.499676 0.685923 0.000000
0.562540 0.685923 0.000000
0.625028 0.685923 0.000000
0.685923 0.685923 0.000000
0.743575 0.685923 0.000000
0.796542 0.685923 0.000000
0.844591 0.685923 0.000000
0.885999 0.685923 0.000000
0.919793 0.685923 0.000000
0.946494 0.685923 0.000000
0.966709 0.685923 0.000000
0.981148 0.685923 0.000000
0.990742 0.685923 0.000000
0.996447 0.685923 0.000000
0.999246 0.685923 0.000000
1.000108 0.685923 0.000000
1.000000 0.685923 0.000000
0.000000 0.743575 0.000000
0.001638 0.743575 0.000000
0.004786 0.743575 0.000000
0.010952 0.743575 0.000000
0.021661 0.743575 0.000000
0.038172 0.743575 0.000000
0.060573 0.743575 0.000000
0.089657 0.743575 0.000000
0.125639 0.743575 0.000000
0.167164 0.743575 0.000000
0.213629 0.743575 0.000000
0.264515 0.743575 0.000000
0.319277 0.743575 0.000000
0.376854 0.743575 0.000000
0.437342 0.743575 0.000000
0.499676 0.743575 0.000000
0.562540 0.743575 0.000000
0.625028 0.743575 0.000000
0.685923 0.743575 0.000000
0.743575 0.743575 0.000000
0.796542 0.743575 0.000000
0.844591 0.743575 0.000000
0.885999 0.743575 0.000000
0.919793 0.743575 0.000000
0.946494 0.743575 0.000000
0.966709 0.743575 0.000000
0.981148 0.743575 0.000000
0.990742 0.743575 0.000000
0.996447 0.743575 0.000000
0.999246 0.743575 0.000000
1.000108 0.743575 0.000000
1.000000 0.743575 0.000000
0.000000 0.796542 0.000000
0.001638 0.796542 0.000000
0.004786 0.796542 0.000000
0.010952 0.796542 0.000000
0.021661 0.796542 0.000000
0.038172 0.796542 0.000000
0.060573 0.796542 0.000000
0.089657 0.796542 0.000000
0.125639 0.796542 0.000000
0.167164 0.796542 0.000000
0.213629 0.796542 0.000000
0.264515 0.796542 0.000000
0.319277 0.796542 0.000000
0.376854 0.796542 0.000000
0.437342 0.796542 0.000000
0.499676 0.796542 0.000000
0.562540 0.796542 0.000000
0.625028 0.796542 0.000000
0.685923 0.796542 0.000000
0.743575 0.796542 0.000000
0.796542 0.796542 0.000000
0.844591 0.796542 0.000000
0.885999 0.796542 0.000000
0.919793 0.796542 0.000000
0.946494 0.796542 0.000000
0.966709 0.796542 0.000000
0.981148 0.796542 0.000000
0.990742 0.796542 0.000000
0.996447 0.796542 0.000000
0.999246 0.796542 0.000000
1.000108 0.796542 0.000000
1.000000 0.796542 0.000000
0.000000 0.844591 0.000000
0.001638 0.844591 0.000000
0.004786 0.844591 0.000000
0.010952 0.844591 0.000000
0.021661 0.844591 0.000000
0.038172 0.844591 0.000000
0.060573 0.844591 0.000000
0.089657 0.844591 0.000000
0.125639 0.844591 0.000000
0.167164 0.844591 0.000000
0.213629 0.844591 0.000000
0.264515 0.844591 0.000000
0.319277 0.844591 0.000000
0.376854 0.844591 0.000000
0.437342 0.844591 0.000000
0.499676 0.844591 0.000000
0.562540 0.844591 0.000000
0.625028 0.844591 0.000000
0.685923 0.844591 0.000000
0.743575 0.844591 0.000000
0.796542 0.844591 0.000000
0.844591 0.844591 0.000000
0.885999 0.844591 0.000000
0.919793 0.844591 0.000000
0.946494 0.844591 0.000000
0.966709 0.844591 0.000000
0.981148 0.844591 0.000000
0.990742 0.844591 0.000000
0.996447 0.844591 0.000000
0.999246 0.844591 0.000000
1.000108 0.844591 0.000000
1.000000 0.844591 0.000000
0.000000 0.885999 0.000000
0.001638 0.885999 0.000000
0.004786 0.885999 0.000000
0.010952 0.885999 0.000000
0.021661 0.885999 0.000000
0.038172 0.885999 0.000000
0.060573 0.885999 0.000000
0.089657 0.885999 0.000000
0.125639 0.885999 0.000000
0.167164 0.885999 0.000000
0.213629 0.885999 0.000000
0.264515 0.885999 0.000000
0.319277 0.885999 0.000000
0.376854 0.885999 0.000000
0.437342 0.885999 0.000000
0.499676 0.885999 0.000000
0.562540 0.885999 0.000000
0.625028 0.885999 0.000000
0.685923 0.885999 0.000000
0.743575 0.885999 0.000000
0.796542 0.885999 0.000000
0.844591 0.885999 0.000000
0.885999 0.885999 0.000000
0.919793 0.885999 0.000000
0.946494 0.885999 0.000000
0.966709 0.885999 0.000000
0.981148 0.885999 0.000000
0.990742 0.885999 0.000000
0.996447 0.885999 0.000000
0.999246 0.885999 0.000000
1.000108 0.885999 0.000000
1.000000 0.885999 0.000000
0.000000 0.919793 0.000000
0.001638 0.919793 0.000000
0.004786 0.919793 0.000000
0.010952 0.919793 0.000000
0.021661 0.919793 0.000000
0.038172 0.919793 0.000000
0.060573 0.919793 0.000000
0.089657 0.919793 0.000000
0.125639 0.919793 0.000000
0.167164 0.919793 0.000000
0.213629 0.919793 0.000000
0.264515 0.919793 0.000000
0.319277 0.919793 0.000000
0.376854 0.919793 0.000000
0.437342 0.919793 0.000000
0.499676 0.919793 0.000000
0.562540 0.919793 0.000000
0.625028 0.919793 0.000000
0.685923 0.919793 0.000000
0.743575 0.919793 0.000000
0.796542 0.919793 0.000000
0.844591 0.919793 0.000000
0.885999 0.919793 0.000000
0.919793 0.919793 0.000000
0.946494 0.919793 0.000000
0.966709 0.919793 0.000000
0.981148 0.919793 0.000000
0.990742 0.919793 0.000000
0.996447 0.919793 0.000000
0.999246 0.919793 0.000000
1.000108 0.919793 0.000000
1.000000 0.919793 0.000000
0.000000 0.946494 0.000000
0.001638 0.946494 0.000000
0.004786 0.946494 0.000000
0.010952 0.946494 0.000000
0.021661 0.946494 0.000000
0.038172 0.946494 0.000000
0.060573 0.946494 0.000000
0.089657 0.946494 0.000000
0.125639 0.946494 0.000000
0.167164 0.946494 0.000000
0.213629 0.946494 0.000000
0.264515 0.946494 0.000000
0.319277 0.946494 0.000000
0.376854 0.946494 0.000000
0.437342 0.946494 0.000000
0.499676 0.946494 0.000000
0.562540 0.946494 0.000000
0.625028 0.946494 0.000000
0.685923 0.946494 0.000000
0.743575 0.946494 0.000000
0.796542 0.946494 0.000000
0.844591 0.946494 0.000000
0.885999 0.946494 0.000000
0.919793 0.946494 0.000000
0.946494 0.946494 0.000000
0.966709 0.946494 0.000000
0.981148 0.946494 0.000000
0.990742 0.946494 0.000000
0.996447 0.946494 0.000000
0.999246 0.946494 0.000000
1.000108 0.946494 0.000000
1.000000 0.946494 0.000000
0.000000 0.966709 0.000000
0.001638 0.966709 0.000000
0.004786 0.966709 0.000000
0.010952 0.966709 0.000000
0.021661 0.966709 0.000000
0.038172 0.966709 0.000000
0.060573 0.966709 0.000000
0.089657 0.966709 0.000000
0.125639 0.966709 0.000000
0.167164 0.966709 0.000000
0.213629 0.966709 0.000000
0.264515 0.966709 0.000000
0.319277 0.966709 0.000000
0.376854 0.966709 0.000000
0.437342 0.966709 0.000000
0.499676 0.966709 0.000000
0.562540 0.966709 0.000000
0.625028 0.966709 0.000000
0.685923 0.966709 0.000000
0.743575 0.966709 0.000000
0.796542 0.966709 0.000000
0.844591 0.966709 0.000000
0.885999 0.966709 0.000000
0.919793 0.966709 0.000000
0.946494 0.966709 0.000000
0.966709 0.966709 0.000000
0.981148 0.966709 0.000000
0.990742 0.966709 0.000000
0.996447 0.966709 0.000000
0.999246 0.966709 0.000000
1.000108 0.966709 0.000000
1.000000 0.966709 0.000000
0.000000 0.981148 0.000000
0.001638 0.981148 0.000000
0.004786 0.981148 0.000000
0.010952 0.981148 0.000000
0.021661 0.981148 0.000000
0.038172 0.981148 0.000000
0.060573 0.981148 0.000000
0.089657 0.981148 0.000000
0.125639 0.981148 0.000000
0.167164 0.981148 0.000000
0.213629 0.981148 0.000000
0.264515 0.981148 0.000000
0.319277 0.981148 0.000000
0.376854 0.981148 0.000000
0.437342 0.981148 0.000000
0.499676 0.981148 0.000000
0.562540 0.981148 0.000000
0.625028 0.981148 0.000000
0.685923 0.981148 0.000000
0.743575 0.981148 0.000000
0.796542 0.981148 0.000000
0.844591 0.981148 0.000000
0.885999 0.981148 0.000000
0.919793 0.981148 0.000000
0.946494 0.981148 0.000000
0.966709 0.981148 0.000000
0.981148 0.981148 0.000000
0.990742 0.981148 0.000000
0.996447 0.981148 0.000000
0.999246 0.981148 0.000000
1.000108 0.981148 0.000000
1.000000 0.981148 0.000000
0.000000 0.990742 0.000000
0.001638 0.990742 0.000000
0.004786 0.990742 0.000000
0.010952 0.990742 0.000000
0.021661 0.990742 0.000000
0.038172 0.990742 0.000000
0.060573 0.990742 0.000000
0.089657 0.990742 0.000000
0.125639 0.990742 0.000000
0.167164 0.990742 0.000000
0.213629 0.990742 0.000000
0.264515 0.990742 0.000000
0.319277 0.990742 0.000000
0.376854 0.990742 0.000000
0.437342 0.990742 0.000000
0.499676 0.990742 0.000000
0.562540 0.990742 0.000000
0.625028 0.990742 0.000000
0.685923 0.990742 0.000000
0.743575 0.990742 0.000000
0.796542 0.990742 0.000000
0.844591 0.990742 0.000000
0.885999 0.990742 0.000000
