RLF_2_RG4.cube
TITLE "Generated by Foundry::LUT"
LUT_3D_SIZE 8
DOMAIN_MIN 0.000000 0.000000 0.000000
DOMAIN_MAX 0.903226 0.903226 0.903226
0.000000 0.000000 0.000000
0.021661 0.000000 0.000000
0.125639 0.000000 0.000000
0.319277 0.000000 0.000000
0.562540 0.000000 0.000000
0.796542 0.000000 0.000000
0.946494 0.000000 0.000000
0.996447 0.000000 0.000000
0.000000 0.021661 0.000000
0.021661 0.021661 0.000000
0.125639 0.021661 0.000000
0.319277 0.021661 0.000000
0.562540 0.021661 0.000000
0.796542 0.021661 0.000000
0.946494 0.021661 0.000000
0.996447 0.021661 0.000000
0.000000 0.125639 0.000000
0.021661 0.125639 0.000000
0.125639 0.125639 0.000000
0.319277 0.125639 0.000000
0.562540 0.125639 0.000000
0.796542 0.125639 0.000000
0.946494 0.125639 0.000000
0.996447 0.125639 0.000000
0.000000 0.319277 0.000000
0.021661 0.319277 0.000000
0.125639 0.319277 0.000000
0.319277 0.319277 0.000000
0.562540 0.319277 0.000000
0.796542 0.319277 0.000000
0.946494 0.319277 0.000000
0.996447 0.319277 0.000000
0.000000 0.562540 0.000000
0.021661 0.562540 0.000000
0.125639 0.562540 0.000000
0.319277 0.562540 0.000000
0.562540 0.562540 0.000000
0.796542 0.562540 0.000000
0.946494 0.562540 0.000000
0.996447 0.562540 0.000000
0.000000 0.796542 0.000000
0.021661 0.796542 0.000000
0.125639 0.796542 0.000000
0.319277 0.796542 0.000000
0.562540 0.796542 0.000000
0.796542 0.796542 0.000000
0.946494 0.796542 0.000000
0.996447 0.796542 0.000000
0.000000 0.946494 0.000000
0.021661 0.946494 0.000000
0.125639 0.946494 0.000000
0.319277 0.946494 0.000000
0.562540 0.946494 0.000000
0.796542 0.946494 0.000000
0.946494 0.946494 0.000000
0.996447 0.946494 0.000000
0.000000 0.996447 0.000000
0.021661 0.996447 0.000000
0.125639 0.996447 0.000000
0.319277 0.996447 0.000000
0.562540 0.996447 0.000000
0.796542 0.996447 0.000000
0.946494 0.996447 0.000000
0.996447 0.996447 0.000000
0.000000 0.000000 0.021661
0.021661 0.000000 0.021661
0.125639 0.000000 0.021661
0.319277 0.000000 0.021661
0.562540 0.000000 0.021661
0.796542 0.000000 0.021661
0.946494 0.000000 0.021661
0.996447 0.000000 0.021661
0.000000 0.021661 0.021661
0.021661 0.021661 0.021661
0.125639 0.021661 0.021661
0.319277 0.021661 0.021661
0.562540 0.021661 0.021661
0.796542 0.021661 0.021661
0.946494 0.021661 0.021661
0.996447 0.021661 0.021661
0.000000 0.125639 0.021661
0.021661 0.125639 0.021661
0.125639 0.125639 0.021661
0.319277 0.125639 0.021661
0.562540 0.125639 0.021661
0.796542 0.125639 0.021661
0.946494 0.125639 0.021661
0.996447 0.125639 0.021661
0.000000 0.319277 0.021661
0.021661 0.319277 0.021661
0.125639 0.319277 0.021661
0.319277 0.319277 0.021661
0.562540 0.319277 0.021661
0.796542 0.319277 0.021661
0.946494 0.319277 0.021661
0.996447 0.319277 0.021661
0.000000 0.562540 0.021661
0.021661 0.562540 0.021661
0.125639 0.562540 0.021661
0.319277 0.562540 0.021661
0.562540 0.562540 0.021661
0.796542 0.562540 0.021661
0.946494 0.562540 0.021661
0.996447 0.562540 0.021661
0.000000 0.796542 0.021661
0.021661 0.796542 0.021661
0.125639 0.796542 0.021661
0.319277 0.796542 0.021661
0.562540 0.796542 0.021661
0.796542 0.796542 0.021661
0.946494 0.796542 0.021661
0.996447 0.796542 0.021661
0.000000 0.946494 0.021661
0.021661 0.946494 0.021661
0.125639 0.946494 0.021661
0.319277 0.946494 0.021661
0.562540 0.946494 0.021661
0.796542 0.946494 0.021661
0.946494 0.946494 0.021661
0.996447 0.946494 0.021661
0.000000 0.996447 0.021661
0.021661 0.996447 0.021661
0.125639 0.996447 0.021661
0.319277 0.996447 0.021661
0.562540 0.996447 0.021661
0.796542 0.996447 0.021661
0.946494 0.996447 0.021661
0.996447 0.996447 0.021661
0.000000 0.000000 0.125639
0.021661 0.000000 0.125639
0.125639 0.000000 0.125639
0.319277 0.000000 0.125639
0.562540 0.000000 0.125639
0.796542 0.000000 0.125639
0.946494 0.000000 0.125639
0.996447 0.000000 0.125639
0.000000 0.021661 0.125639
0.021661 0.021661 0.125639
0.125639 0.021661 0.125639
0.319277 0.021661 0.125639
0.562540 0.021661 0.125639
0.796542 0.021661 0.125639
0.946494 0.021661 0.125639
0.996447 0.021661 0.125639
0.000000 0.125639 0.125639
0.021661 0.125639 0.125639
0.125639 0.125639 0.125639
0.319277 0.125639 0.125639
0.562540 0.125639 0.125639
0.796542 0.125639 0.125639
0.946494 0.125639 0.125639
0.996447 0.125639 0.125639
0.000000 0.319277 0.125639
0.021661 0.319277 0.125639
0.125639 0.319277 0.125639
0.319277 0.319277 0.125639
0.562540 0.319277 0.125639
0.796542 0.319277 0.125639
0.946494 0.319277 0.125639
0.996447 0.319277 0.125639
0.000000 0.562540 0.125639
0.021661 0.562540 0.125639
0.125639 0.562540 0.125639
0.319277 0.562540 0.125639
0.562540 0.562540 0.125639
0.796542 0.562540 0.125639
0.946494 0.562540 0.125639
0.996447 0.562540 0.125639
0.000000 0.796542 0.125639
0.021661 0.796542 0.125639
0.125639 0.796542 0.125639
0.319277 0.796542 0.125639
0.562540 0.796542 0.125639
0.796542 0.796542 0.125639
0.946494 0.796542 0.125639
0.996447 0.796542 0.125639
0.000000 0.946494 0.125639
0.021661 0.946494 0.125639
0.125639 0.946494 0.125639
0.319277 0.946494 0.125639
0.562540 0.946494 0.125639
0.796542 0.946494 0.125639
0.946494 0.946494 0.125639
0.996447 0.946494 0.125639
0.000000 0.996447 0.125639
0.021661 0.996447 0.125639
0.125639 0.996447 0.125639
0.319277 0.996447 0.125639
0.562540 0.996447 0.125639
0.796542 0.996447 0.125639
0.946494 0.996447 0.125639
0.996447 0.996447 0.125639
0.000000 0.000000 0.319277
0.021661 0.000000 0.319277
0.125639 0.000000 0.319277
0.319277 0.000000 0.319277
0.562540 0.000000 0.319277
0.796542 0.000000 0.319277
0.946494 0.000000 0.319277
0.996447 0.000000 0.319277
0.000000 0.021661 0.319277
0.021661 0.021661 0.319277
0.125639 0.021661 0.319277
0.319277 0.021661 0.319277
0.562540 0.021661 0.319277
0.796542 0.021661 0.319277
0.946494 0.021661 0.319277
0.996447 0.021661 0.319277
0.000000 0.125639 0.319277
0.021661 0.125639 0.319277
0.125639 0.125639 0.319277
0.319277 0.125639 0.319277
0.562540 0.125639 0.319277
0.796542 0.125639 0.319277
0.946494 0.125639 0.319277
0.996447 0.125639 0.319277
0.000000 0.319277 0.319277
0.021661 0.319277 0.319277
0.125639 0.319277 0.319277
0.319277 0.319277 0.319277
0.562540 0.319277 0.319277
0.796542 0.319277 0.319277
0.946494 0.319277 0.319277
0.996447 0.319277 0.319277
0.000000 0.562540 0.319277
0.021661 0.562540 0.319277
0.125639 0.562540 0.319277
0.319277 0.562540 0.319277
0.562540 0.562540 0.319277
0.796542 0.562540 0.319277
0.946494 0.562540 0.319277
0.996447 0.562540 0.319277
0.000000 0.796542 0.319277
0.021661 0.796542 0.319277
0.125639 0.796542 0.319277
0.319277 0.796542 0.319277
0.562540 0.796542 0.319277
0.796542 0.796542 0.319277
0.946494 0.796542 0.319277
0.996447 0.796542 0.319277
0.000000 0.946494 0.319277
0.021661 0.946494 0.319277
0.125639 0.946494 0.319277
0.319277 0.946494 0.319277
0.562540 0.946494 0.319277
0.796542 0.946494 0.319277
0.946494 0.946494 0.319277
0.996447 0.946494 0.319277
0.000000 0.996447 0.319277
0.021661 0.996447 0.319277
0.125639 0.996447 0.319277
0.319277 0.996447 0.319277
0.562540 0.996447 0.319277
0.796542 0.996447 0.319277
0.946494 0.996447 0.319277
0.996447 0.996447 0.319277
0.000000 0.000000 0.562540
0.021661 0.000000 0.562540
0.125639 0.000000 0.562540
0.319277 0.000000 0.562540
0.562540 0.000000 0.562540
0.796542 0.000000 0.562540
0.946494 0.000000 0.562540
0.996447 0.000000 0.562540
0.000000 0.021661 0.562540
0.021661 0.021661 0.562540
0.125639 0.021661 0.562540
0.319277 0.021661 0.562540
0.562540 0.021661 0.562540
0.796542 0.021661 0.562540
0.946494 0.021661 0.562540
0.996447 0.021661 0.562540
0.000000 0.125639 0.562540
0.021661 0.125639 0.562540
0.125639 0.125639 0.562540
0.319277 0.125639 0.562540
0.562540 0.125639 0.562540
0.796542 0.125639 0.562540
0.946494 0.125639 0.562540
0.996447 0.125639 0.562540
0.000000 0.319277 0.562540
0.021661 0.319277 0.562540
0.125639 0.319277 0.562540
0.319277 0.319277 0.562540
0.562540 0.319277 0.562540
0.796542 0.319277 0.562540
0.946494 0.319277 0.562540
0.996447 0.319277 0.562540
0.000000 0.562540 0.562540
0.021661 0.562540 0.562540
0.125639 0.562540 0.562540
0.319277 0.562540 0.562540
0.562540 0.562540 0.562540
0.796542 0.562540 0.562540
0.946494 0.562540 0.562540
0.996447 0.562540 0.562540
0.000000 0.796542 0.562540
0.021661 0.796542 0.562540
0.125639 0.796542 0.562540
0.319277 0.796542 0.562540
0.562540 0.796542 0.562540
0.796542 0.796542 0.562540
0.946494 0.796542 0.562540
0.996447 0.796542 0.562540
0.000000 0.946494 0.562540
0.021661 0.946494 0.562540
0.125639 0.946494 0.562540
0.319277 0.946494 0.562540
0.562540 0.946494 0.562540
0.796542 0.946494 0.562540
0.946494 0.946494 0.562540
0.996447 0.946494 0.562540
0.000000 0.996447 0.562540
0.021661 0.996447 0.562540
0.125639 0.996447 0.562540
0.319277 0.996447 0.562540
0.562540 0.996447 0.562540
0.796542 0.996447 0.562540
0.946494 0.996447 0.562540
0.996447 0.996447 0.562540
0.000000 0.000000 0.796542
0.021661 0.000000 0.796542
0.125639 0.000000 0.796542
0.319277 0.000000 0.796542
0.562540 0.000000 0.796542
0.796542 0.000000 0.796542
0.946494 0.000000 0.796542
0.996447 0.000000 0.796542
0.000000 0.021661 0.796542
0.021661 0.021661 0.796542
0.125639 0.021661 0.796542
0.319277 0.021661 0.796542
0.562540 0.021661 0.796542
0.796542 0.021661 0.796542
0.946494 0.021661 0.796542
0.996447 0.021661 0.796542
0.000000 0.125639 0.796542
0.021661 0.125639 0.796542
0.125639 0.125639 0.796542
0.319277 0.125639 0.796542
0.562540 0.125639 0.796542
0.796542 0.125639 0.796542
0.946494 0.125639 0.796542
0.996447 0.125639 0.796542
0.000000 0.319277 0.796542
0.021661 0.319277 0.796542
0.125639 0.319277 0.796542
0.319277 0.319277 0.796542
0.562540 0.319277 0.796542
0.796542 0.319277 0.796542
0.946494 0.319277 0.796542
0.996447 0.319277 0.796542
0.000000 0.562540 0.796542
0.021661 0.562540 0.796542
0.125639 0.562540 0.796542
0.319277 0.562540 0.796542
0.562540 0.562540 0.796542
0.796542 0.562540 0.796542
0.946494 0.562540 0.796542
0.996447 0.562540 0.796542
0.000000 0.796542 0.796542
0.021661 0.796542 0.796542
0.125639 0.796542 0.796542
0.319277 0.796542 0.796542
0.562540 0.796542 0.796542
0.796542 0.796542 0.796542
0.946494 0.796542 0.796542
0.996447 0.796542 0.796542
0.000000 0.946494 0.796542
0.021661 0.946494 0.796542
0.125639 0.946494 0.796542
0.319277 0.946494 0.796542
0.562540 0.946494 0.796542
0.796542 0.946494 0.796542
0.946494 0.946494 0.796542
0.996447 0.946494 0.796542
0.000000 0.996447 0.796542
0.021661 0.996447 0.796542
0.125639 0.996447 0.796542
0.319277 0.996447 0.796542
0.562540 0.996447 0.796542
0.796542 0.996447 0.796542
0.946494 0.996447 0.796542
0.996447 0.996447 0.796542
0.000000 0.000000 0.946494
0.021661 0.000000 0.946494
0.125639 0.000000 0.946494
0.319277 0.000000 0.946494
0.562540 0.000000 0.946494
0.796542 0.000000 0.946494
0.946494 0.000000 0.946494
0.996447 0.000000 0.946494
0.000000 0.021661 0.946494
0.021661 0.021661 0.946494
0.125639 0.021661 0.946494
0.319277 0.021661 0.946494
0.562540 0.021661 0.946494
0.796542 0.021661 0.946494
0.946494 0.021661 0.946494
0.996447 0.021661 0.946494
0.000000 0.125639 0.946494
0.021661 0.125639 0.946494
0.125639 0.125639 0.946494
0.319277 0.125639 0.946494
0.562540 0.125639 0.946494
0.796542 0.125639 0.946494
0.946494 0.125639 0.946494
0.996447 0.125639 0.946494
0.000000 0.319277 0.946494
0.021661 0.319277 0.946494
0.125639 0.319277 0.946494
0.319277 0.319277 0.946494
0.562540 0.319277 0.946494
0.796542 0.319277 0.946494
0.946494 0.319277 0.946494
0.996447 0.319277 0.946494
0.000000 0.562540 0.946494
0.021661 0.562540 0.946494
0.125639 0.562540 0.946494
0.319277 0.562540 0.946494
0.562540 0.562540 0.946494
0.796542 0.562540 0.946494
0.946494 0.562540 0.946494
0.996447 0.562540 0.946494
0.000000 0.796542 0.946494
0.021661 0.796542 0.946494
0.125639 0.796542 0.946494
0.319277 0.796542 0.946494
0.562540 0.796542 0.946494
0.796542 0.796542 0.946494
0.946494 0.796542 0.946494
0.996447 0.796542 0.946494
0.000000 0.946494 0.946494
0.021661 0.946494 0.946494
0.125639 0.946494 0.946494
0.319277 0.946494 0.946494
0.562540 0.946494 0.946494
0.796542 0.946494 0.946494
0.946494 0.946494 0.946494
0.996447 0.946494 0.946494
0.000000 0.996447 0.946494
0.021661 0.996447 0.946494
0.125639 0.996447 0.946494
0.319277 0.996447 0.946494
0.562540 0.996447 0.946494
0.796542 0.996447 0.946494
0.946494 0.996447 0.946494
0.996447 0.996447 0.946494
0.000000 0.000000 0.996447
0.021661 0.000000 0.996447
0.125639 0.000000 0.996447
0.319277 0.000000 0.996447
0.562540 0.000000 0.996447
0.796542 0.000000 0.996447
0.946494 0.000000 0.996447
0.996447 0.000000 0.996447
0.000000 0.021661 0.996447
0.021661 0.021661 0.996447
0.125639 0.021661 0.996447
0.319277 0.021661 0.996447
0.562540 0.021661 0.996447
0.796542 0.021661 0.996447
0.946494 0.021661 0.996447
0.996447 0.021661 0.996447
0.000000 0.125639 0.996447
0.021661 0.125639 0.996447
0.125639 0.125639 0.996447
0.319277 0.125639 0.996447
0.562540 0.125639 0.996447
0.796542 0.125639 0.996447
0.946494 0.125639 0.996447
0.996447 0.125639 0.996447
0.000000 0.319277 0.996447
0.021661 0.319277 0.996447
0.125639 0.319277 0.996447
0.319277 0.319277 0.996447
0.562540 0.319277 0.996447
0.796542 0.319277 0.996447
0.946494 0.319277 0.996447
0.996447 0.319277 0.996447
0.000000 0.562540 0.996447
0.021661 0.562540 0.996447
0.125639 0.562540 0.996447
0.319277 0.562540 0.996447
0.562540 0.562540 0.996447
0.796542 0.562540 0.996447
0.946494 0.562540 0.996447
0.996447 0.562540 0.996447
0.000000 0.796542 0.996447
0.021661 0.796542 0.996447
0.125639 0.796542 0.996447
0.319277 0.796542 0.996447
0.562540 0.796542 0.996447
0.796542 0.796542 0.996447
0.946494 0.796542 0.996447
0.996447 0.796542 0.996447
0.000000 0.946494 0.996447
0.021661 0.946494 0.996447
0.125639 0.946494 0.996447
0.319277 0.946494 0.996447
0.562540 0.946494 0.996447
0.796542 0.946494 0.996447
0.946494 0.946494 0.996447
0.996447 0.946494 0.996447
0.000000 0.996447 0.996447
0.021661 0.996447 0.996447
0.125639 0.996447 0.996447
0.319277 0.996447 0.996447
0.562540 0.996447 0.996447
0.796542 0.996447 0.996447
0.946494 0.996447 0.996447
0.996447 0.996447 0.996447
